X:86
T:Reel 86
M:4/4
K:Bmin
L:1/8
B,>A, (3A,G,A, B,A,G,E,|A,G,F,G, A,G,E,E|F>D (3EDC DECA,|B,A,F,A, B,2FE| (3DDD DD B,A,DA,|B,A,F,G, A,2A,G,|F,B,B,^A, B,CDE|FEDC D2DE| (3DED FD ADFD| (3DED FA B2AF| (3DED FD ADFD|EA, (3A,A,A, B,EDC| (3DED FD ADFD|FDAD ADAF|EAA^G AFDA|BGFE B,2|
